X: 1
T: Callanan's Retreat
M: 4/4
L: 1/8
R: hornpipe
K: Amaj
cB |: (3ABA EA cAce | dcBc defg | a2ea fdBA | GABc dBGB |
(3ABA EA cAce| dcBc defg | aecA EGBd |1 c2 A2 A2 cB :|2 c2 A2 A2 (3efg ||
|: a2 ec Acea | f2 dB F3 f | g2 fe ^defa | gef^d e=dcB |
(3ABA EA cAce | dcBc defg |aecA EGBd |1 c2 A2 A2 (3efg :|2 c2 A2 A4 ||
